X:685
T: Baker's
T: R\'il an Bh\'aic\'eara
S: B.Breathnach:"Ceol Rince na hEireann" IV/137
Z: B.Black
L: 1/8
M: 4/4
R: reel
K: G
d|g2 dc BA G2|AGFA G2 GE|DGFG AB c2|BAGB A2 z d|
g2 dc BA G2|AGFA G2 GE|DGFG AB c2|1 BAGF G2 z :|2\
BAGF G2 ||
Bc|: dBGB dBed|dBGB d2 ed|dBGB dBed|cBAB c2 Bc|
dBGB dBed|dBGB d2 ef|gfed cBAG|1 FGAB c2 Bc :|2\
FGAB c2 z ||
